;FLAVOR:Marlin
;TIME:20940
;Filament used: 14.4394m
;Layer height: 0.2
;MINX:75.341
;MINY:65.589
;MINZ:0.24
;MAXX:159.639
;MAXY:169.411
;MAXZ:34.54
;Generated with Cura_SteamEngine 4.11.0
M140 S50
M105
M190 S50
M104 S200
M105
M109 S200
M82 ;absolute extrusion mode
; Ender 3 Custom Start G-code
G92 E0 ; Reset Extruder
G28 ; Home all axes
G1 Z2.0 F3000 ; Move Z Axis up little to prevent scratching of Heat Bed
G1 X0.1 Y20 Z0.3 F5000.0 ; Move to start position
G1 X0.1 Y200.0 Z0.3 F1500.0 E15 ; Draw the first line
G1 X0.4 Y200.0 Z0.3 F5000.0 ; Move to side a little
G1 X0.4 Y20 Z0.3 F1500.0 E30 ; Draw the second line
G92 E0 ; Reset Extruder
G1 Z2.0 F3000 ; Move Z Axis up little to prevent scratching of Heat Bed
G1 X5 Y20 Z0.3 F5000.0 ; Move over to prevent blob squish
G92 E0
G92 E0
G1 F2700 E-5
;LAYER_COUNT:167
;LAYER:-6
M107
G0 F9000 X77.63 Y68.394 Z0.24
;TYPE:SUPPORT-INTERFACE
G1 F2700 E0
G1 F1125 X77.762 Y68.249 E0.01565
G1 X78.046 Y67.969 E0.04749
G1 X78.222 Y67.815 E0.06616
G1 X78.518 Y67.584 E0.09613
G1 X78.645 Y67.503 E0.10815
G1 X79.233 Y67.166 E0.16225
G1 X79.434 Y67.072 E0.17996
G1 X79.783 Y66.936 E0.20986
G1 X80.045 Y66.851 E0.23185
G1 X80.381 Y66.767 E0.2595
G1 X80.573 Y66.731 E0.27509
G1 X80.988 Y66.677 E0.3085
G1 X81.353 Y66.655 E0.33768
G1 X117.599 Y66.653 E3.231
G1 X117.725 Y66.657 E3.24106
G1 X118.144 Y66.684 E3.27458
G1 X118.532 Y66.736 E3.30582
G1 X118.731 Y66.778 E3.32206
G1 X119.144 Y66.891 E3.35624
G1 X119.379 Y66.971 E3.37605
G1 X119.711 Y67.106 E3.40466
G1 X119.841 Y67.174 E3.41637
G1 X120.105 Y67.325 E3.44065
G1 X120.706 Y67.621 E3.49413
G1 X121.352 Y67.844 E3.54868
G1 X122.022 Y67.982 E3.60329
G1 X122.768 Y68.035 E3.66299
G1 X154.004 Y68.034 E6.15638
G1 X154.13 Y68.038 E6.16644
G1 X154.507 Y68.062 E6.1966
G1 X154.805 Y68.099 E6.22057
G1 X155.089 Y68.154 E6.24366
G1 X155.38 Y68.23 E6.26766
G1 X155.646 Y68.316 E6.28998
G1 X155.909 Y68.422 E6.31262
G1 X156.183 Y68.552 E6.33682
G1 X156.431 Y68.689 E6.35944
G1 X156.671 Y68.842 E6.38216
G1 X156.918 Y69.023 E6.4066
G1 X157.126 Y69.198 E6.4283
G1 X157.375 Y69.436 E6.4558
G1 X157.577 Y69.653 E6.47946
G1 X157.768 Y69.886 E6.50351
G1 X157.932 Y70.114 E6.52593
G1 X158.094 Y70.373 E6.55032
G1 X158.222 Y70.612 E6.57196
G1 X158.349 Y70.887 E6.59614
G1 X158.451 Y71.148 E6.61851
G1 X158.546 Y71.451 E6.64385
G1 X158.6 Y71.672 E6.66201
G1 X158.66 Y72.028 E6.69083
G1 X158.71 Y72.582 E6.73524
G1 X158.72 Y72.804 E6.75297
G1 X158.72 Y161.499 E13.83299
G1 X158.716 Y161.625 E13.84306
G1 X158.692 Y162.002 E13.87321
G1 X158.655 Y162.3 E13.89718
G1 X158.6 Y162.584 E13.92027
G1 X158.524 Y162.875 E13.94428
G1 X158.44 Y163.133 E13.96594
G1 X158.329 Y163.412 E13.98991
G1 X158.207 Y163.67 E14.01269
G1 X158.067 Y163.923 E14.03577
G1 X157.912 Y164.167 E14.05884
G1 X157.739 Y164.402 E14.08214
G1 X157.539 Y164.641 E14.10702
G1 X157.325 Y164.866 E14.1318
G1 X157.099 Y165.075 E14.15637
G1 X156.869 Y165.263 E14.18009
G1 X156.641 Y165.427 E14.20251
G1 X156.382 Y165.589 E14.22689
G1 X156.143 Y165.717 E14.24853
G1 X155.868 Y165.844 E14.27271
G1 X155.607 Y165.946 E14.29508
G1 X155.304 Y166.041 E14.32043
G1 X155.083 Y166.095 E14.33859
G1 X154.727 Y166.155 E14.36741
G1 X154.173 Y166.205 E14.41181
G1 X153.951 Y166.215 E14.42955
G1 X123.925 Y166.216 E16.82635
G1 X123.257 Y166.258 E16.87978
G1 X122.586 Y166.387 E16.93432
G1 X121.936 Y166.6 E16.98893
G1 X121.316 Y166.894 E17.0437
G1 X121.006 Y167.1 E17.07341
G1 X120.992 Y167.079 E17.07542
G1 X120.52 Y167.432 E17.12247
G1 X120.423 Y167.495 E17.13171
G1 X120.054 Y167.719 E17.16616
G1 X119.72 Y167.89 E17.19612
G1 X119.582 Y167.949 E17.2081
G1 X119.192 Y168.093 E17.24128
G1 X118.805 Y168.206 E17.27346
G1 X118.608 Y168.247 E17.28953
G1 X118.218 Y168.307 E17.32102
G1 X117.973 Y168.332 E17.34068
G1 X117.603 Y168.347 E17.37024
G1 X81.462 Y168.346 E20.25517
G1 X81.336 Y168.342 E20.26524
G1 X80.917 Y168.315 E20.29875
G1 X80.529 Y168.263 E20.33
G1 X80.33 Y168.221 E20.34623
G1 X79.926 Y168.11 E20.37968
G1 X79.671 Y168.024 E20.40116
G1 X79.377 Y167.905 E20.42648
G1 X78.981 Y167.697 E20.46218
G1 X78.63 Y167.487 E20.49483
G1 X78.402 Y167.327 E20.51707
G1 X78.086 Y167.061 E20.55004
G1 X77.728 Y166.71 E20.59006
G1 X77.555 Y166.512 E20.61105
G1 X77.308 Y166.188 E20.64357
G1 X77.208 Y166.041 E20.65776
G1 X77.026 Y165.735 E20.68618
G1 X76.957 Y165.593 E20.69879
G1 X76.714 Y165.032 E20.74759
G1 X76.644 Y164.835 E20.76428
G1 X76.541 Y164.451 E20.79601
G1 X76.485 Y164.182 E20.81795
G1 X76.446 Y163.923 E20.83885
G1 X76.428 Y163.748 E20.8529
G1 X76.41 Y163.381 E20.88223
G1 X76.406 Y163.245 E20.89309
G1 X76.408 Y71.758 E28.19598
G1 X76.414 Y71.57 E28.21099
G1 X76.441 Y71.134 E28.24586
G1 X76.47 Y70.94 E28.26152
G1 X76.621 Y70.259 E28.3172
G1 X76.69 Y70.029 E28.33637
G1 X76.843 Y69.639 E28.36981
G1 X76.998 Y69.315 E28.39848
G1 X77.092 Y69.152 E28.4135
G1 X77.294 Y68.835 E28.4435
G1 X77.463 Y68.6 E28.46661
G1 X77.63 Y68.394 E28.48778
G0 F9000 X78.4 Y67.676
G1 F1125 X78.4 Y167.325 E36.44219
G0 F9000 X80 Y168.13
G1 F1125 X80 Y66.865 E44.5256
G0 F9000 X81.6 Y66.654
G1 F1125 X81.6 Y168.346 E52.6431
G0 F9000 X83.2 Y168.346
G1 F1125 X83.2 Y66.654 E60.76059
G0 F9000 X84.8 Y66.654
G1 F1125 X84.8 Y168.346 E68.87809
G0 F9000 X86.4 Y168.346
G1 F1125 X86.4 Y66.654 E76.99558
G0 F9000 X88 Y66.654
G1 F1125 X88 Y168.346 E85.11308
G0 F9000 X89.6 Y168.346
G1 F1125 X89.6 Y66.654 E93.23057
G0 F9000 X91.2 Y66.654
G1 F1125 X91.2 Y168.346 E101.34807
G0 F9000 X92.8 Y168.346
G1 F1125 X92.8 Y66.654 E109.46556
G0 F9000 X94.4 Y66.654
G1 F1125 X94.4 Y168.346 E117.58306
G0 F9000 X96 Y168.346
G1 F1125 X96 Y66.654 E125.70055
G0 F9000 X97.6 Y66.654
G1 F1125 X97.6 Y168.346 E133.81805
G0 F9000 X99.2 Y168.346
G1 F1125 X99.2 Y66.654 E141.93554
G0 F9000 X100.8 Y66.653
G1 F1125 X100.8 Y168.346 E150.05312
G0 F9000 X102.4 Y168.346
G1 F1125 X102.4 Y66.653 E158.17069
G0 F9000 X104 Y66.653
G1 F1125 X104 Y168.346 E166.28827
G0 F9000 X105.6 Y168.346
G1 F1125 X105.6 Y66.653 E174.40584
G0 F9000 X107.2 Y66.653
G1 F1125 X107.2 Y168.346 E182.52342
G0 F9000 X108.8 Y168.346
G1 F1125 X108.8 Y66.653 E190.64099
G0 F9000 X110.4 Y66.653
G1 F1125 X110.4 Y168.346 E198.75857
G0 F9000 X112 Y168.346
G1 F1125 X112 Y66.653 E206.87614
G0 F9000 X113.6 Y66.653
G1 F1125 X113.6 Y168.346 E214.99372
G0 F9000 X115.2 Y168.346
G1 F1125 X115.2 Y66.653 E223.11129
G0 F9000 X116.8 Y66.653
G1 F1125 X116.8 Y168.346 E231.22887
G0 F9000 X118.4 Y168.279
G1 F1125 X118.4 Y66.719 E239.33583
G0 F9000 X120 Y67.265
G1 F1125 X120 Y167.747 E247.35673
G0 F9000 X121.6 Y166.76
G1 F1125 X121.6 Y67.896 E255.24849
G0 F9000 X123.2 Y68.034
G1 F1125 X123.2 Y166.269 E263.09003
G0 F9000 X124.8 Y166.216
G1 F1125 X124.8 Y68.034 E270.92734
G0 F9000 X126.4 Y68.034
G1 F1125 X126.4 Y166.216 E278.76465
G0 F9000 X128 Y166.216
G1 F1125 X128 Y68.034 E286.60196
G0 F9000 X129.6 Y68.034
G1 F1125 X129.6 Y166.216 E294.43928
G0 F9000 X131.2 Y166.216
G1 F1125 X131.2 Y68.034 E302.27659
G0 F9000 X132.8 Y68.034
G1 F1125 X132.8 Y166.216 E310.1139
G0 F9000 X134.4 Y166.216
G1 F1125 X134.4 Y68.034 E317.95121
G0 F9000 X136 Y68.034
G1 F1125 X136 Y166.216 E325.78852
G0 F9000 X137.6 Y166.216
G1 F1125 X137.6 Y68.034 E333.62584
G0 F9000 X139.2 Y68.034
G1 F1125 X139.2 Y166.216 E341.46315
G0 F9000 X140.8 Y166.216
G1 F1125 X140.8 Y68.034 E349.30046
G0 F9000 X142.4 Y68.034
G1 F1125 X142.4 Y166.216 E357.13777
G0 F9000 X144 Y166.216
G1 F1125 X144 Y68.034 E364.97508
G0 F9000 X145.6 Y68.034
G1 F1125 X145.6 Y166.216 E372.81239
G0 F9000 X147.2 Y166.216
G1 F1125 X147.2 Y68.034 E380.64971
G0 F9000 X148.8 Y68.034
G1 F1125 X148.8 Y166.216 E388.48702
G0 F9000 X150.4 Y166.216
G1 F1125 X150.4 Y68.034 E396.32433
G0 F9000 X152 Y68.034
G1 F1125 X152 Y166.216 E404.16164
G0 F9000 X153.6 Y166.216
G1 F1125 X153.6 Y68.034 E411.99895
G0 F9000 X155.2 Y68.183
G1 F1125 X155.2 Y166.067 E419.81248
G0 F9000 X156.8 Y165.313
G1 F1125 X156.8 Y68.937 E427.50563
G0 F9000 X158.4 Y71.018
G1 F1125 X158.4 Y163.234 E434.86671
G1 F2700 E429.86671
G0 F9000 X159.31 Y163.825
G0 X158.79 Y164.769
G0 X158.073 Y165.623
G0 X157.234 Y166.312
G0 X156.282 Y166.825
G0 X155.297 Y167.139
G0 X153.983 Y167.279
G0 X117.621 Y169.411
G0 X80.83 Y169.376
G0 X79.617 Y169.129
G0 X78.577 Y168.767
G0 X77.37 Y167.849
G0 X76.72 Y167.172
G0 X76.2 Y166.4
G0 X75.824 Y165.654
G0 X76.8 Y165.23
G1 F2700 E434.86671
G1 F1125 X76.8 Y69.748 E442.48849
G1 F2700 E437.48849
G0 F300 X76.8 Y69.748 Z0.54
G0 F9000 X75.861 Y69.23
G0 X76.419 Y68.228
G0 X77 Y67.505
G0 X77.915 Y66.707
G0 X79.039 Y66.083
G0 X80.261 Y65.703
G0 X81.447 Y65.589
G0 X118.231 Y65.623
G0 X154.609 Y67.002
G0 X155.676 Y67.207
G0 X156.674 Y67.607
G0 X157.57 Y68.181
G0 X158.23 Y68.811
G0 X158.817 Y69.521
G0 X158.093 Y70.372
;TIME_ELAPSED:308.740130
;LAYER:-5
;TYPE:SUPPORT
G1 F2700 E442.48849
G1 F1125 X157.93 Y70.113 E442.51903
G1 X157.766 Y69.886 E442.54697
G1 X157.575 Y69.652 E442.57711
G1 X157.374 Y69.435 E442.60662
G1 X157.125 Y69.198 E442.64092
G1 X156.917 Y69.022 E442.66811
G1 X156.67 Y68.841 E442.69867
G1 X156.429 Y68.689 E442.7271
G1 X156.296 Y68.615 E442.74228
G1 X158.139 Y70.458 E443.00235
G1 X158.221 Y70.612 E443.01976
G1 X158.348 Y70.887 E443.04998
G1 X158.45 Y71.148 E443.07794
G1 X158.545 Y71.451 E443.10963
G1 X158.599 Y71.671 E443.13223
G1 X158.659 Y72.028 E443.16835
G1 X158.695 Y72.428 E443.20843
G1 X154.317 Y68.05 E443.82621
G1 X154.129 Y68.037 E443.84501
G1 X154.002 Y68.034 E443.85769
G1 X152.887 Y68.034 E443.96894
G1 X158.72 Y73.867 E444.79204
G1 X158.72 Y75.281 E444.93313
G1 X151.473 Y68.034 E445.95576
G1 X150.059 Y68.034 E446.09685
G1 X158.72 Y76.695 E447.31901
G1 X158.72 Y78.109 E447.4601
G1 X148.645 Y68.034 E448.88179
G1 X147.23 Y68.034 E449.02298
G1 X158.72 Y79.524 E450.64435
G1 X158.72 Y80.938 E450.78544
G1 X145.816 Y68.034 E452.60633
G1 X144.402 Y68.034 E452.74742
G1 X158.72 Y82.352 E454.76784
G1 X158.72 Y83.766 E454.90893
G1 X142.988 Y68.034 E457.12889
G1 X141.574 Y68.034 E457.26998
G1 X158.72 Y85.18 E459.68946
G1 X158.72 Y86.595 E459.83065
G1 X140.159 Y68.034 E462.44981
G1 X138.745 Y68.034 E462.5909
G1 X158.72 Y88.009 E465.40959
G1 X158.72 Y89.423 E465.55068
G1 X137.331 Y68.034 E468.5689
G1 X135.917 Y68.034 E468.70999
G1 X158.72 Y90.837 E471.92774
G1 X158.72 Y92.251 E472.06882
G1 X134.503 Y68.034 E475.48611
G1 X133.088 Y68.034 E475.62729
G1 X158.72 Y93.666 E479.24425
G1 X158.72 Y95.08 E479.38534
G1 X131.674 Y68.034 E483.20182
G1 X130.26 Y68.034 E483.34291
G1 X158.72 Y96.494 E487.35892
G1 X158.72 Y97.908 E487.50001
G1 X128.846 Y68.034 E491.71556
G1 X127.431 Y68.034 E491.85674
G1 X158.72 Y99.323 E496.27196
G1 X158.72 Y100.737 E496.41305
G1 X126.017 Y68.034 E501.0278
G1 X124.603 Y68.034 E501.16889
G1 X158.72 Y102.151 E505.98316
G1 X158.72 Y103.565 E506.12425
G1 X123.189 Y68.034 E511.13806
G1 X122.767 Y68.034 E511.18017
G1 X122.021 Y67.981 E511.25479
G1 X121.644 Y67.904 E511.29319
G1 X158.72 Y104.979 E516.52494
G1 X158.72 Y106.394 E516.66613
G1 X119.254 Y66.929 E522.23514
G1 X119.143 Y66.89 E522.24688
G1 X118.73 Y66.777 E522.2896
G1 X118.646 Y66.757 E522.29822
G1 X118.385 Y66.711 E522.32466
G1 X118.143 Y66.684 E522.34896
G1 X117.724 Y66.656 E522.39086
G1 X117.598 Y66.652 E522.40344
G1 X117.564 Y66.653 E522.40683
G1 X158.72 Y107.808 E528.21432
G1 X158.72 Y109.222 E528.35541
G1 X116.15 Y66.653 E534.36242
G1 X114.736 Y66.653 E534.50351
G1 X158.72 Y110.636 E540.71006
G1 X158.72 Y112.05 E540.85115
G1 X113.322 Y66.653 E547.25723
G1 X111.908 Y66.653 E547.39832
G1 X158.72 Y113.465 E554.00399
G1 X158.72 Y114.879 E554.14508
G1 X110.493 Y66.653 E560.95036
G1 X109.079 Y66.653 E561.09145
G1 X158.72 Y116.293 E568.09626
G1 X158.72 Y117.707 E568.23735
G1 X107.665 Y66.653 E575.44169
G1 X106.251 Y66.653 E575.58278
G1 X158.72 Y119.122 E582.98673
G1 X158.72 Y120.536 E583.12782
G1 X104.837 Y66.654 E590.73122
G1 X103.423 Y66.654 E590.87231
G1 X158.72 Y121.95 E598.67524
G1 X158.72 Y123.364 E598.81633
G1 X102.009 Y66.654 E606.8188
G1 X100.595 Y66.654 E606.95989
G1 X158.72 Y124.778 E615.16188
G1 X158.72 Y126.193 E615.30307
G1 X99.18 Y66.654 E623.70474
G1 X97.766 Y66.654 E623.84583
G1 X158.72 Y127.607 E632.44702
G1 X158.72 Y129.021 E632.58811
G1 X96.352 Y66.654 E641.38884
G1 X94.938 Y66.654 E641.52993
G1 X158.72 Y130.435 E650.53019
G1 X158.72 Y131.849 E650.67128
G1 X93.524 Y66.654 E659.87107
G1 X92.11 Y66.654 E660.01216
G1 X158.72 Y133.264 E669.41155
G1 X158.72 Y134.678 E669.55264
G1 X90.696 Y66.654 E679.15156
G1 X89.282 Y66.654 E679.29265
G1 X158.72 Y136.092 E689.0911
G1 X158.72 Y137.506 E689.23219
G1 X87.867 Y66.654 E699.23024
G1 X86.453 Y66.654 E699.37133
G1 X158.72 Y138.921 E709.56899
G1 X158.72 Y140.335 E709.71008
G1 X85.039 Y66.654 E720.10726
G1 X83.625 Y66.654 E720.24835
G1 X158.72 Y141.749 E730.84507
G1 X158.72 Y143.163 E730.98615
G1 X82.211 Y66.654 E741.7824
G1 X81.352 Y66.654 E741.86811
G1 X81.206 Y66.659 E741.88269
G1 X80.987 Y66.676 E741.90461
G1 X80.838 Y66.696 E741.91961
G1 X158.72 Y144.577 E752.90953
G1 X158.72 Y145.992 E753.05072
G1 X79.697 Y66.969 E764.20172
G1 X79.433 Y67.071 E764.22996
G1 X79.335 Y67.113 E764.24059
G1 X79.232 Y67.165 E764.25211
G1 X78.754 Y67.441 E764.30718
G1 X158.72 Y147.406 E775.59118
G1 X158.72 Y148.82 E775.73227
G1 X77.957 Y68.057 E787.1288
G1 X77.761 Y68.249 E787.15618
G1 X77.678 Y68.336 E787.16817
G1 X77.629 Y68.394 E787.17575
G1 X77.462 Y68.599 E787.20213
G1 X77.303 Y68.818 E787.22914
G1 X158.72 Y150.234 E798.71789
G1 X158.72 Y151.648 E798.85897
G1 X76.804 Y69.733 E810.41814
G1 X76.689 Y70.028 E810.44973
G1 X76.659 Y70.114 E810.45882
G1 X76.619 Y70.258 E810.47373
G1 X76.491 Y70.835 E810.5327
G1 X158.72 Y153.063 E822.13603
G1 X158.72 Y154.477 E822.27712
G1 X76.407 Y72.164 E833.89238
G1 X76.407 Y73.578 E834.03346
G1 X158.72 Y155.891 E845.64872
G1 X158.72 Y157.305 E845.78981
G1 X76.407 Y74.992 E857.40506
G1 X76.407 Y76.407 E857.54625
G1 X158.72 Y158.72 E869.1615
G1 X158.72 Y160.134 E869.30259
G1 X76.407 Y77.821 E880.91785
G1 X76.407 Y79.235 E881.05894
G1 X158.719 Y161.547 E892.67405
G1 X158.716 Y161.624 E892.68174
G1 X158.691 Y162 E892.71934
G1 X158.654 Y162.299 E892.7494
G1 X158.599 Y162.583 E892.77826
G1 X158.546 Y162.789 E892.79949
G1 X76.407 Y80.649 E904.39026
G1 X76.407 Y82.063 E904.53135
G1 X158.138 Y163.794 E916.06448
G1 X158.067 Y163.922 E916.07908
G1 X157.912 Y164.166 E916.10792
G1 X157.739 Y164.401 E916.13704
G1 X157.553 Y164.624 E916.16602
G1 X76.407 Y83.478 E927.61659
G1 X76.407 Y84.892 E927.75768
G1 X156.815 Y165.3 E939.10412
G1 X156.641 Y165.426 E939.12556
G1 X156.381 Y165.588 E939.15612
G1 X156.143 Y165.716 E939.18309
G1 X155.919 Y165.818 E939.20765
G1 X76.407 Y86.306 E950.42765
G1 X76.407 Y87.72 E950.56874
G1 X154.823 Y166.137 E961.63415
G1 X154.726 Y166.153 E961.64396
G1 X154.173 Y166.204 E961.69938
G1 X153.951 Y166.213 E961.72154
G1 X153.486 Y166.213 E961.76794
G1 X76.407 Y89.135 E972.64455
G1 X76.407 Y90.549 E972.78564
G1 X152.071 Y166.213 E983.46265
G1 X150.657 Y166.213 E983.60374
G1 X76.407 Y91.963 E994.08122
G1 X76.407 Y93.377 E994.2223
G1 X149.243 Y166.213 E1004.50025
G1 X147.829 Y166.213 E1004.64134
G1 X76.407 Y94.791 E1014.71976
G1 X76.407 Y96.206 E1014.86095
G1 X146.414 Y166.213 E1024.73969
G1 X145 Y166.213 E1024.88078
G1 X76.407 Y97.62 E1034.55999
G1 X76.407 Y99.034 E1034.70108
G1 X143.586 Y166.213 E1044.18076
G1 X142.172 Y166.213 E1044.32185
G1 X76.407 Y100.448 E1053.60201
G1 X76.407 Y101.862 E1053.7431
G1 X140.758 Y166.213 E1062.82372
G1 X139.343 Y166.213 E1062.96491
G1 X76.406 Y103.276 E1071.846
G1 X76.406 Y104.69 E1071.98709
G1 X137.93 Y166.214 E1080.66879
G1 X136.516 Y166.214 E1080.80988
G1 X76.406 Y106.104 E1089.29205
G1 X76.406 Y107.519 E1089.43324
G1 X135.101 Y166.214 E1097.71573
G1 X133.687 Y166.214 E1097.85682
G1 X76.406 Y108.933 E1105.93979
G1 X76.406 Y110.347 E1106.08088
G1 X132.273 Y166.214 E1113.96432
G1 X130.859 Y166.214 E1114.10541
G1 X76.406 Y111.761 E1121.78931
G1 X76.406 Y113.175 E1121.9304
G1 X129.445 Y166.214 E1129.41478
G1 X128.03 Y166.214 E1129.55597
G1 X76.406 Y114.59 E1136.84067
G1 X76.406 Y116.004 E1136.98176
G1 X126.616 Y166.214 E1144.06694
G1 X125.202 Y166.214 E1144.20803
G1 X76.406 Y117.418 E1151.09367
G1 X76.406 Y118.832 E1151.23476
G1 X123.796 Y166.223 E1157.92207
G1 X123.257 Y166.257 E1157.97596
